1.Normal/chrome/Icons/star.svg

<svg xmlns="http://www.w3.org/2000/svg" width="16" height="16" viewBox="0 0 16 16">
   <path
   style="fill:context-fill;fill-opacity:context-fill-opacity"
   d="M 8 0.34179688 C 7.6433815 0.34179563 7.2868961 0.5268125 7.1035156 0.8984375 L 5.1738281 4.8105469 L 0.85742188 5.4375 C 0.037311635 5.55668 -0.2907062 6.5640381 0.30273438 7.1425781 L 3.4257812 10.1875 L 2.6894531 14.486328 C 2.5493619 15.303228 3.40514 15.926716 4.1386719 15.541016 L 8 13.511719 L 11.859375 15.541016 C 12.592977 15.926716 13.450628 15.303228 13.310547 14.486328 L 12.574219 10.1875 L 15.697266 7.1425781 C 16.290786 6.5640481 15.962768 5.55668 15.142578 5.4375 L 10.826172 4.8105469 L 8.8964844 0.8984375 C 8.7131089 0.5268175 8.3566185 0.34179812 8 0.34179688 z M 8 1.3417969 L 9.9296875 5.2539062 C 10.075368 5.5490463 10.357937 5.7534513 10.683594 5.8007812 L 14.998047 6.4277344 L 11.875 9.4726562 C 11.639329 9.7023562 11.532301 10.033022 11.587891 10.357422 L 12.326172 14.65625 L 8.4648438 12.626953 C 8.1735827 12.473753 7.8264473 12.473753 7.5351562 12.626953 L 3.6738281 14.65625 L 4.4121094 10.357422 C 4.4677319 10.033022 4.3606584 9.7023562 4.125 9.4726562 L 1 6.4277344 L 5.3164062 5.8007812 C 5.6420727 5.7534513 5.924672 5.5490462 6.0703125 5.2539062 L 8 1.3417969 z " />
</svg>

<svg xmlns="http://www.w3.org/2000/svg" width="16" height="16">
  <style>
    path:not(:target,:last-child),path:target~:last-child{display:none}
  </style>
  <g style="fill:context-fill;fill-opacity:context-fill-opacity">
    <path id="fill" d="M8 .342a.987.987 0 0 0-.896.556l-1.93 3.913-4.317.627a1 1 0 0 0-.554 1.705l3.123 3.045-.737 4.298a1 1 0 0 0 1.45 1.055L8 13.511l3.86 2.03a1 1 0 0 0 1.45-1.055l-.736-4.299 3.123-3.044a1 1 0 0 0-.554-1.705l-4.317-.627L8.896.898A.987.987 0 0 0 8 .342z"/>
    <path id="list" d="M8.002.342A.992.992 0 0 0 7.104.9l-1.93 3.91-4.317.628a1.001 1.001 0 0 0-.554 1.707l3.123 3.044-.737 4.3a1 1 0 0 0 1.452 1.052l4.093-2.15a.5.5 0 0 0-.466-.887l-4.092 2.152.736-4.299a1 1 0 0 0-.287-.884L1.002 6.428 5.318 5.8a.998.998 0 0 0 .752-.547l1.932-3.912 2.023 4.101a.999.999 0 0 0 .897.557H15.5a.5.5 0 1 0 0-1h-4.578L8.898.9a.989.989 0 0 0-.896-.558zM10.5 8a.5.5 0 1 0 0 1h5a.5.5 0 0 0 0-1h-5zm0 3a.5.5 0 1 0 0 1h5a.5.5 0 0 0 0-1h-5z"/>
    <path d="M8 .342a.987.987 0 0 0-.896.556l-1.93 3.913-4.317.627a1 1 0 0 0-.554 1.705l3.123 3.045-.737 4.298a1 1 0 0 0 1.45 1.055L8 13.511l3.86 2.03a1 1 0 0 0 1.45-1.055l-.736-4.299 3.123-3.044a1 1 0 0 0-.554-1.705l-4.317-.627L8.896.898A.987.987 0 0 0 8 .342zm0 1 1.93 3.912a1 1 0 0 0 .754.547l4.314.627-3.123 3.045a1 1 0 0 0-.287.884l.738 4.3-3.861-2.03a.998.998 0 0 0-.93 0l-3.861 2.03.738-4.3a1 1 0 0 0-.287-.884L1 6.428 5.316 5.8c.326-.048.609-.252.754-.547L8 1.342z"/>
  </g>
</svg>
